X:2
T:Banshee, The
M:C|
R:Reel
Z:Transcribed by Lars Johannesson
K:G
~G3D EDBD|~G3B d2Bd|~e3d BAGA|BAGE EDD2:|\
eaag efge|dBBA ~B3d|eBBA gBfB|eBBA B3d|\
eaag efge|dBBA ~B3d|~e3d BAGA|BAGE EDD2:|
